brandFactory_export/2.Regular/Data stripes_2Regular.svg

<?xml version="1.0" encoding="UTF-8"?>
<svg width="24px" height="24px" viewBox="0 0 24 24" version="1.1" xmlns="http://www.w3.org/2000/svg" xmlns:xlink="http://www.w3.org/1999/xlink">
    <title>2.Regular/Data stripes_2Regular</title>
    <g id="Symbols" stroke="none" stroke-width="1" fill="none" fill-rule="evenodd">
        <g id="2.Regular/Data-stripes_2Regular" fill="#5CB615" fill-rule="nonzero">
            <path d="M20.2453782,20.3630252 C19.0117647,20.7294118 17.3815126,20.9344538 15.6571429,20.9344538 C14.5411765,20.9344538 13.4756303,20.8403361 12.5176471,20.6823529 C13.6705882,19.707563 14.6453782,18.5680672 14.8537815,17.3714286 C14.8705882,17.2773109 14.8840336,17.1731092 14.9008403,17.0689076 C15.1563025,17.0789916 15.4117647,17.0890756 15.6705882,17.0890756 C17.5361345,17.0890756 19.3142857,16.8638655 20.6722689,16.4571429 C21.2537815,16.2823529 21.7680672,16.0571429 22.2050499,15.7882353 L22.2050499,18.897479 C22.2084034,19.6235294 21.1394958,20.0941176 20.2453782,20.3630252 L20.2453782,20.3630252 Z M1.85546218,17.1226891 C1.78151261,16.6991597 1.7210084,16.1613445 1.67394958,15.5630252 L6.8605042,15.5630252 L6.8605042,21.687395 C4.97478992,20.6487395 2.14453782,18.7663866 1.85546218,17.1226891 Z M1.49915966,10.2084034 C2.88739496,10.2084034 3.79159664,9.61008403 4.60504202,9.07226891 C5.27394958,8.63193277 5.91932773,8.21512605 6.8605042,8.0605042 L6.8605042,14.1176471 L1.58655462,14.1176471 C1.51596639,12.6386555 1.49243697,11.1058824 1.48571429,10.205042 L1.49915966,10.205042 L1.49915966,10.2084034 Z M9.1092437,5.0487395 C9.53613445,5.30420168 10.0537815,5.52605042 10.6689076,5.70756303 C12.0268908,6.11428571 13.8016807,6.3394958 15.6705882,6.3394958 C17.5361345,6.3394958 19.3142857,6.11428571 20.6722689,5.70756303 C21.2806723,5.52605042 21.7915966,5.31092437 22.2084034,5.06554622 L22.2084034,8.48067227 C21.9932773,8.84369748 21.3882353,9.34453782 20.2588235,9.68403361 C18.9310924,10.0840336 17.0823529,10.2857143 15.2436975,10.2453782 C15.2470588,9.77815126 15.2470588,9.46554622 15.2470588,9.41512605 C15.2470588,9.20336134 15.1394958,9.00840336 14.9781513,8.87058824 C14.8168067,8.73613445 14.594958,8.68235294 14.3831933,8.7092437 C13.0655462,8.91428571 12.3630252,8.45378151 11.4756303,7.86554622 C10.8235294,7.43529412 10.107563,6.97142857 9.11260504,6.72605042 L9.11260504,5.0487395 L9.1092437,5.0487395 Z M11.0722689,2.01344538 C12.2991597,1.64705882 13.9294118,1.44201681 15.6571429,1.44201681 C17.3882353,1.44201681 19.0184874,1.64369748 20.2453782,2.01344538 C21.0084034,2.24201681 21.8890756,2.62184874 22.1378151,3.17983193 C21.9361345,3.61344538 21.2773109,4.02016807 20.2554622,4.32941176 C19.0285714,4.69579832 17.4016807,4.89747899 15.6705882,4.89747899 C13.9394958,4.89747899 12.312605,4.69579832 11.0857143,4.32605042 C10.0504202,4.01680672 9.39495798,3.60336134 9.2,3.16302521 C9.40504202,2.72941176 10.0470588,2.32268908 11.0722689,2.01344538 L11.0722689,2.01344538 Z M15.2235294,11.6907563 C15.3714286,11.6941176 15.5193277,11.7008403 15.6705882,11.7008403 C17.5361345,11.7008403 19.3142857,11.4756303 20.6722689,11.0689076 C21.2537815,10.8941176 21.7680672,10.6655462 22.205042,10.4 L22.205042,13.8689076 C21.989916,14.2285714 21.3815126,14.7327731 20.2554622,15.0722689 C19.0285714,15.4386555 17.4016807,15.6436975 15.6705882,15.6436975 C15.4621849,15.6436975 15.2571429,15.6336134 15.0521008,15.6268908 C15.1529412,14.3596639 15.2,12.887395 15.2235294,11.6907563 L15.2235294,11.6907563 Z M8.3092437,8.04369748 C9.31092437,8.18151261 9.97647059,8.61512605 10.6722689,9.07226891 C11.4756303,9.60336134 12.3731092,10.194958 13.7882353,10.194958 L13.7915966,10.194958 C13.7848739,11.0890756 13.7613445,12.6352941 13.6907563,14.1176471 L8.30588235,14.1176471 L8.30588235,8.04369748 L8.3092437,8.04369748 Z M8.3092437,21.7478992 L8.3092437,15.5630252 L13.6067227,15.5630252 C13.5596639,16.1613445 13.502521,16.6991597 13.4285714,17.1226891 C13.1361345,18.8 10.194958,20.7193277 8.3092437,21.7478992 L8.3092437,21.7478992 Z M20.6621849,0.631932773 C19.3042017,0.225210084 17.5260504,0 15.6571429,0 C13.7882353,0 12.0134454,0.225210084 10.6521008,0.631932773 C9.00840336,1.12605042 8.0302521,1.8789916 7.74453782,2.87058824 C7.68739496,3.06554622 7.65714286,3.27394958 7.65714286,3.48571429 L7.65714286,6.5512605 L7.63361345,6.5512605 C5.79831933,6.5512605 4.7394958,7.25042017 3.80168067,7.86890756 C2.91428571,8.45714286 2.22184874,8.92773109 0.931092437,8.72268908 C0.715966387,8.66890756 0.487394958,8.71596639 0.309243697,8.85378151 C0.134453782,8.99159664 0.0301570886,9.2 0.0301570886,9.42184874 C0.0301570886,9.65042017 0.0134453782,15.0352941 0.426890756,17.3747899 C0.971428571,20.4806723 6.6789916,23.2504202 7.32773109,23.5563025 C7.42521008,23.6033613 7.53277311,23.6268908 7.63697479,23.6268908 C7.74453782,23.6268908 7.8487395,23.6033613 7.94621849,23.5596639 C8.23865546,23.4218487 9.56302521,22.7798319 10.9781513,21.8352941 C12.2991597,22.1848739 13.9327731,22.3865546 15.6537815,22.3865546 C17.5159664,22.3865546 19.2907563,22.1613445 20.6588235,21.7546218 C22.6453782,21.1563025 23.6504536,20.1983193 23.6504536,18.9042017 L23.6504536,3.49243697 C23.6571429,2.18823529 22.6487395,1.2302521 20.6621849,0.631932773 Z" id="Data-stripes_2Regular"></path>
        </g>
    </g>
</svg>

<svg width="24" height="24" viewBox="0 0 24 24" xmlns="http://www.w3.org/2000/svg"><path d="M20.245 20.363c-1.233.366-2.863.571-4.588.571-1.116 0-2.181-.094-3.14-.252 1.154-.974 2.128-2.114 2.337-3.31.017-.095.03-.199.047-.303.255.01.51.02.77.02 1.865 0 3.643-.225 5.001-.632a6.486 6.486 0 001.533-.669v3.11c.003.726-1.066 1.196-1.96 1.465zm-18.39-3.24a17.41 17.41 0 01-.181-1.56H6.86v6.124c-1.886-1.038-4.716-2.92-5.006-4.564zM1.5 10.208c1.388 0 2.293-.598 3.106-1.136.669-.44 1.314-.857 2.256-1.011v6.057H1.587a103.04 103.04 0 01-.101-3.913h.013v.003zm7.61-5.16c.427.256.945.478 1.56.66 1.358.406 3.133.631 5.002.631 1.865 0 3.643-.225 5.001-.631a6.95 6.95 0 001.536-.642V8.48c-.215.363-.82.864-1.95 1.203-1.327.4-3.176.602-5.014.561.003-.467.003-.78.003-.83a.726.726 0 00-.269-.544.782.782 0 00-.595-.162c-1.317.205-2.02-.255-2.907-.843-.652-.43-1.368-.895-2.363-1.14V5.05h-.004zm1.963-3.035c1.227-.366 2.857-.571 4.585-.571 1.731 0 3.361.202 4.588.571.763.229 1.644.609 1.893 1.167-.202.433-.86.84-1.883 1.15-1.226.366-2.853.567-4.584.567-1.732 0-3.358-.201-4.585-.57-1.036-.31-1.691-.724-1.886-1.164.205-.434.847-.84 1.872-1.15zm4.152 9.678c.147.003.295.01.447.01 1.865 0 3.643-.225 5.001-.632a6.627 6.627 0 001.533-.669v3.469c-.215.36-.823.864-1.95 1.203-1.226.367-2.853.572-4.584.572-.209 0-.414-.01-.619-.017.1-1.267.148-2.74.172-3.936zM8.309 8.044c1.002.138 1.667.571 2.363 1.028.804.531 1.701 1.123 3.116 1.123h.004c-.007.894-.03 2.44-.101 3.923H8.306V8.044h.003zm0 13.704v-6.185h5.298a17.537 17.537 0 01-.178 1.56c-.293 1.677-3.234 3.596-5.12 4.625zM20.662.632C19.304.225 17.526 0 15.657 0c-1.869 0-3.644.225-5.005.632-1.644.494-2.622 1.247-2.907 2.239a2.194 2.194 0 00-.088.615V6.55h-.023c-1.836 0-2.895.7-3.832 1.318-.888.588-1.58 1.059-2.87.854a.727.727 0 00-.902.699c0 .228-.017 5.613.397 7.953.544 3.106 6.252 5.875 6.9 6.181a.717.717 0 00.62.004c.292-.138 1.616-.78 3.031-1.725 1.321.35 2.955.552 4.676.552 1.862 0 3.637-.226 5.005-.632 1.986-.599 2.991-1.557 2.991-2.85V3.491c.007-1.304-1.001-2.262-2.988-2.86z" fill="#5CB615" fill-rule="nonzero"/></svg>
